X:2815
L:1/16
Q:1/4=90
M:2/4
K:C
 C2 |[K:C] C2a2e2GF | E2cA G2e/d | c2c2c2 Bc | d2d2 cBAG | cdec G2GF | E2cA G2ec | c2c2c2 Bc | 
 d2d2 cBAG | c4 c2 :: Bc | d2dB g2ge | d2dB G2G2 | FGAB cAdc | c4 B2Bc | d2dB g2gf | d2dB G2G2 | 
 FGAB cBGE | G4 G2 | ef | g6 e2 | a2g2f2e2 | d2d2 dcde | c2d2e2f2 g6 e2 | a2g2f2e2 | d2d2 dcde | 
 c2e2c2 |]

